lib/assets/photoDrag.svg

<svg width="48" height="48" viewBox="0 0 48 48" fill="none" xmlns="http://www.w3.org/2000/svg">
<path d="M24 6L25.4591 4.63212L24 3.07577L22.5409 4.63212L24 6ZM22 18V20H26V18H22ZM31.4591 11.0321L25.4591 4.63212L22.5409 7.36788L28.5409 13.7679L31.4591 11.0321ZM22.5409 4.63212L16.5409 11.0321L19.4591 13.7679L25.4591 7.36788L22.5409 4.63212ZM22 6V18H26V6H22Z" fill="#EBEBEB"/>
<path d="M42 24L43.3679 25.4591L44.9242 24L43.3679 22.5409L42 24ZM30 22L28 22L28 26L30 26L30 22ZM36.9679 31.4591L43.3679 25.4591L40.6321 22.5409L34.2321 28.5409L36.9679 31.4591ZM43.3679 22.5409L36.9679 16.5409L34.2321 19.4591L40.6321 25.4591L43.3679 22.5409ZM42 22L30 22L30 26L42 26L42 22Z" fill="#EBEBEB"/>
<path d="M24 42L25.4591 43.3679L24 44.9242L22.5409 43.3679L24 42ZM22 30V28H26V30H22ZM31.4591 36.9679L25.4591 43.3679L22.5409 40.6321L28.5409 34.2321L31.4591 36.9679ZM22.5409 43.3679L16.5409 36.9679L19.4591 34.2321L25.4591 40.6321L22.5409 43.3679ZM22 42V30H26V42H22Z" fill="#EBEBEB"/>
<path d="M6 24L4.63212 25.4591L3.07577 24L4.63212 22.5409L6 24ZM18 22L20 22L20 26L18 26L18 22ZM11.0321 31.4591L4.63212 25.4591L7.36788 22.5409L13.7679 28.5409L11.0321 31.4591ZM4.63212 22.5409L11.0321 16.5409L13.7679 19.4591L7.36788 25.4591L4.63212 22.5409ZM6 22L18 22L18 26L6 26L6 22Z" fill="#EBEBEB"/>
</svg>

<svg width="48" height="48" viewBox="0 0 48 48" fill="none" xmlns="http://www.w3.org/2000/svg"><path d="m24 6 1.46-1.368L24 3.076l-1.46 1.556L24 6Zm-2 12v2h4v-2h-4Zm9.46-6.968-6-6.4-2.92 2.736 6 6.4 2.92-2.736Zm-8.92-6.4-6 6.4 2.92 2.736 6-6.4-2.92-2.736ZM22 6v12h4V6h-4ZM42 24l1.368 1.46L44.924 24l-1.556-1.46L42 24Zm-12-2h-2v4h2v-4Zm6.968 9.46 6.4-6-2.736-2.92-6.4 6 2.736 2.92Zm6.4-8.92-6.4-6-2.736 2.92 6.4 6 2.736-2.92ZM42 22H30v4h12v-4ZM24 42l1.46 1.368L24 44.924l-1.46-1.556L24 42Zm-2-12v-2h4v2h-4Zm9.46 6.968-6 6.4-2.92-2.736 6-6.4 2.92 2.736Zm-8.92 6.4-6-6.4 2.92-2.736 6 6.4-2.92 2.736ZM22 42V30h4v12h-4ZM6 24l-1.368 1.46L3.076 24l1.556-1.46L6 24Zm12-2h2v4h-2v-4Zm-6.968 9.46-6.4-6 2.736-2.92 6.4 6-2.736 2.92Zm-6.4-8.92 6.4-6 2.736 2.92-6.4 6-2.736-2.92ZM6 22h12v4H6v-4Z" fill="#EBEBEB"/></svg>
